humanity-icon-theme/Humanity/apps/16/utilities-terminal.svg

<?xml version="1.0" encoding="UTF-8" standalone="no"?>
<!-- Created with Inkscape (http://www.inkscape.org/) -->

<svg
   xmlns:dc="http://purl.org/dc/elements/1.1/"
   xmlns:cc="http://creativecommons.org/ns#"
   xmlns:rdf="http://www.w3.org/1999/02/22-rdf-syntax-ns#"
   xmlns:svg="http://www.w3.org/2000/svg"
   xmlns="http://www.w3.org/2000/svg"
   xmlns:xlink="http://www.w3.org/1999/xlink"
   xmlns:sodipodi="http://sodipodi.sourceforge.net/DTD/sodipodi-0.dtd"
   xmlns:inkscape="http://www.inkscape.org/namespaces/inkscape"
   width="16px"
   height="16px"
   id="svg2987"
   version="1.1"
   inkscape:version="0.47 r22583"
   sodipodi:docname="utilities-terminal.svg">
  <defs
     id="defs2989">
    <linearGradient
       inkscape:collect="always"
       xlink:href="#linearGradient2223-4-6-9-7"
       id="linearGradient2880"
       gradientUnits="userSpaceOnUse"
       gradientTransform="matrix(0.23078255,0,0,0.15385747,2.4612174,4.80742)"
       x1="16.142857"
       y1="4.000001"
       x2="16.142857"
       y2="44.000256" />
    <linearGradient
       id="linearGradient2223-4-6-9-7">
      <stop
         id="stop2225-6-4-7-2"
         style="stop-color:#ffffff;stop-opacity:1"
         offset="0" />
      <stop
         id="stop2229-2-5-5-8"
         style="stop-color:#ffffff;stop-opacity:0"
         offset="1" />
    </linearGradient>
    <linearGradient
       inkscape:collect="always"
       xlink:href="#linearGradient8265-821-176-38-919-66-249-7-7-8-6"
       id="linearGradient2883"
       gradientUnits="userSpaceOnUse"
       gradientTransform="matrix(0.3047619,0,0,0.32156297,0.6857159,1.0806705)"
       x1="16.626165"
       y1="15.298182"
       x2="20.054544"
       y2="24.627615" />
    <linearGradient
       id="linearGradient8265-821-176-38-919-66-249-7-7-8-6">
      <stop
         id="stop2687-1-9-0-2"
         style="stop-color:#ffffff;stop-opacity:1"
         offset="0" />
      <stop
         id="stop2689-5-4-3-1"
         style="stop-color:#ffffff;stop-opacity:0"
         offset="1" />
    </linearGradient>
    <linearGradient
       inkscape:collect="always"
       xlink:href="#linearGradient3680-6"
       id="linearGradient2886"
       gradientUnits="userSpaceOnUse"
       gradientTransform="matrix(0.34285716,0,0,0.36363635,-0.42808397,-0.8181827)"
       x1="16"
       y1="27.045361"
       x2="16"
       y2="16" />
    <linearGradient
       id="linearGradient3680-6">
      <stop
         id="stop3682-4"
         style="stop-color:#dcdcdc;stop-opacity:1"
         offset="0" />
      <stop
         id="stop3684-8"
         style="stop-color:#ffffff;stop-opacity:1"
         offset="1" />
    </linearGradient>
    <linearGradient
       inkscape:collect="always"
       xlink:href="#linearGradient3680-6"
       id="linearGradient2890"
       gradientUnits="userSpaceOnUse"
       gradientTransform="matrix(0.375,0,0,0.37500002,-0.74977888,-0.5000014)"
       x1="20"
       y1="28"
       x2="20"
       y2="26" />
    <linearGradient
       inkscape:collect="always"
       xlink:href="#linearGradient2238-2-3-3-1"
       id="linearGradient2894"
       gradientUnits="userSpaceOnUse"
       gradientTransform="matrix(0.28855461,0,0,0.25608224,1.0743364,2.6116386)"
       x1="12.578789"
       y1="2.9165411"
       x2="12.213111"
       y2="47.278698" />
    <linearGradient
       id="linearGradient2238-2-3-3-1">
      <stop
         id="stop2240-1-6-7-0"
         style="stop-color:#ffffff;stop-opacity:1"
         offset="0" />
      <stop
         id="stop2242-7-3-7-2"
         style="stop-color:#ffffff;stop-opacity:0"
         offset="1" />
    </linearGradient>
    <linearGradient
       inkscape:collect="always"
       xlink:href="#linearGradient2223-4-6-9"
       id="linearGradient2897"
       gradientUnits="userSpaceOnUse"
       gradientTransform="matrix(0.33032214,0,0,0.32623537,0.07424774,1.9648611)"
       x1="23.070969"
       y1="36.046932"
       x2="23.070969"
       y2="33.296398" />
    <linearGradient
       id="linearGradient2223-4-6-9">
      <stop
         id="stop2225-6-4-7"
         style="stop-color:#ffffff;stop-opacity:1"
         offset="0" />
      <stop
         id="stop2229-2-5-5"
         style="stop-color:#ffffff;stop-opacity:0"
         offset="1" />
    </linearGradient>
    <radialGradient
       inkscape:collect="always"
       xlink:href="#linearGradient4157-401-351-3-5"
       id="radialGradient2900"
       gradientUnits="userSpaceOnUse"
       gradientTransform="matrix(0,0.47178162,-0.86826171,-1.9907311e-8,15.336637,1.0828837)"
       cx="7.4956832"
       cy="8.4497671"
       fx="7.4956832"
       fy="8.4497671"
       r="19.99999" />
    <linearGradient
       id="linearGradient4157-401-351-3-5">
      <stop
         id="stop3790-0-0"
         style="stop-color:#505050;stop-opacity:1"
         offset="0" />
      <stop
         id="stop3792-0-2"
         style="stop-color:#141414;stop-opacity:1"
         offset="1" />
    </linearGradient>
    <linearGradient
       inkscape:collect="always"
       xlink:href="#linearGradient3610-302-5-8"
       id="linearGradient2902"
       gradientUnits="userSpaceOnUse"
       gradientTransform="matrix(0.28206754,0,0,0.20514331,1.2303796,3.5765608)"
       x1="16.142857"
       y1="4.000001"
       x2="16.142857"
       y2="44.000256" />
    <linearGradient
       id="linearGradient3610-302-5-8">
      <stop
         id="stop3796-3-0"
         style="stop-color:#323232;stop-opacity:1"
         offset="0" />
      <stop
         id="stop3798-8-6"
         style="stop-color:#000000;stop-opacity:1"
         offset="1" />
    </linearGradient>
    <linearGradient
       id="linearGradient3994-617-9-9">
      <stop
         id="stop4324-9-7"
         style="stop-color:#f0f0f0;stop-opacity:1"
         offset="0" />
      <stop
         id="stop2860-4-4"
         style="stop-color:#d7d7d8;stop-opacity:1"
         offset="0.08552461" />
      <stop
         id="stop2862-5-9"
         style="stop-color:#b2b2b3;stop-opacity:1"
         offset="0.92166406" />
      <stop
         id="stop4326-1-1"
         style="stop-color:#979798;stop-opacity:1"
         offset="1" />
    </linearGradient>
    <linearGradient
       id="linearGradient4008-764-3-0">
      <stop
         id="stop4334-7-6"
         style="stop-color:#595959;stop-opacity:1"
         offset="0" />
      <stop
         id="stop4336-8-0"
         style="stop-color:#b3b3b3;stop-opacity:1"
         offset="1" />
    </linearGradient>
    <linearGradient
       y2="43.865456"
       x2="23.999996"
       y1="7.9600015"
       x1="23.999996"
       gradientTransform="matrix(0.33330371,0,0,0.32428536,7.542669e-4,0.06858)"
       gradientUnits="userSpaceOnUse"
       id="linearGradient2983"
       xlink:href="#linearGradient3994-617-9-9"
       inkscape:collect="always" />
    <linearGradient
       y2="2.8764627"
       x2="10.014208"
       y1="44.960102"
       x1="10.014208"
       gradientTransform="matrix(0.3191222,0,0,0.29298233,0.34111736,1.464833)"
       gradientUnits="userSpaceOnUse"
       id="linearGradient2985"
       xlink:href="#linearGradient4008-764-3-0"
       inkscape:collect="always" />
  </defs>
  <sodipodi:namedview
     id="base"
     pagecolor="#ffffff"
     bordercolor="#666666"
     borderopacity="1.0"
     inkscape:pageopacity="0.0"
     inkscape:pageshadow="2"
     inkscape:zoom="22.197802"
     inkscape:cx="8"
     inkscape:cy="8"
     inkscape:current-layer="layer1"
     showgrid="true"
     inkscape:grid-bbox="true"
     inkscape:document-units="px"
     inkscape:window-width="603"
     inkscape:window-height="479"
     inkscape:window-x="0"
     inkscape:window-y="46"
     inkscape:window-maximized="0" />
  <metadata
     id="metadata2992">
    <rdf:RDF>
      <cc:Work
         rdf:about="">
        <dc:format>image/svg+xml</dc:format>
        <dc:type
           rdf:resource="http://purl.org/dc/dcmitype/StillImage" />
        <dc:title></dc:title>
      </cc:Work>
    </rdf:RDF>
  </metadata>
  <g
     id="layer1"
     inkscape:label="Layer 1"
     inkscape:groupmode="layer">
    <rect
       style="fill:url(#linearGradient2983);fill-opacity:1;fill-rule:evenodd;stroke:url(#linearGradient2985);stroke-width:1.00213289;stroke-linecap:round;stroke-linejoin:round;stroke-miterlimit:4;stroke-opacity:1;stroke-dasharray:none;stroke-dashoffset:0"
       id="rect2551-5-8"
       y="2.5010664"
       x="0.50106645"
       ry="0.99999994"
       rx="1"
       height="11.997867"
       width="14.997956" />
    <rect
       style="color:#000000;fill:url(#radialGradient2900);fill-opacity:1;fill-rule:nonzero;stroke:url(#linearGradient2902);stroke-width:0.99999994;stroke-linecap:round;stroke-linejoin:round;stroke-miterlimit:4;stroke-opacity:1;stroke-dasharray:none;stroke-dashoffset:0;marker:none;visibility:visible;display:inline;overflow:visible;enable-background:accumulate"
       id="rect1314-3-3"
       y="4.499999"
       x="2.5"
       ry="0"
       rx="0"
       height="8"
       width="11" />
    <rect
       style="opacity:0.4;fill:none;stroke:url(#linearGradient2897);stroke-width:1.00213289;stroke-linecap:round;stroke-linejoin:round;stroke-miterlimit:4;stroke-opacity:1;stroke-dasharray:none;stroke-dashoffset:0"
       id="rect2221-3-8"
       y="3.501066"
       x="1.5009826"
       ry="0"
       rx="0"
       height="9.9978676"
       width="12.998134" />
    <rect
       style="opacity:0.8;fill:none;stroke:url(#linearGradient2894);stroke-width:1.00373149;stroke-linecap:round;stroke-linejoin:round;stroke-miterlimit:4;stroke-opacity:1;stroke-dasharray:none;stroke-dashoffset:0"
       id="rect2556-8-5"
       y="3.5018649"
       x="1.5018657"
       height="9.9962683"
       width="12.996268" />
    <path
       style="fill:url(#linearGradient2890);fill-opacity:1;stroke:none"
       id="path3651-2"
       d="m 9.0002209,9.9999995 0,-0.75 -3,0 0,0.75 3,0 z" />
    <path
       style="fill:url(#linearGradient2886);fill-opacity:1;stroke:none"
       id="path3653-7"
       d="M 3.6862018,8.9999995 3.0004877,8.2727267 4.5433447,6.9999994 3.0004877,5.7272723 3.6862018,4.9999995 6.0004877,6.9999994 3.6862018,8.9999995 z" />
    <path
       style="opacity:0.2;fill:url(#linearGradient2883);fill-opacity:1;fill-rule:evenodd;stroke:none"
       id="path3333-3-0"
       d="M 1.6666673,2.9999995 C 1.2984291,2.9999995 1,3.3148814 1,3.7034179 l 0,5.1450082 c 9.545e-4,0.043283 0.018837,0.084214 0.049602,0.1128581 0.030769,0.028643 0.071495,0.04238 0.1123023,0.037874 L 14.876189,6.7080226 C 14.946736,6.6962846 14.999014,6.6326376 15,6.55729 L 15,3.7034179 C 15,3.3148814 14.701571,2.9999995 14.333333,2.9999995 l -12.6666657,0 0,0 z" />
    <rect
       style="opacity:0.1;color:#000000;fill:none;stroke:url(#linearGradient2880);stroke-width:0.99999994;stroke-linecap:round;stroke-linejoin:round;stroke-miterlimit:4;stroke-opacity:1;stroke-dasharray:none;stroke-dashoffset:0;marker:none;visibility:visible;display:inline;overflow:visible;enable-background:accumulate"
       id="rect1314-3-3-9"
       y="5.4999995"
       x="3.5"
       ry="0"
       rx="0"
       height="6"
       width="9" />
  </g>
</svg>

<?xml version="1.0" encoding="UTF-8" standalone="no"?>
<!-- Created with Inkscape (http://www.inkscape.org/) -->
<svg id="svg2987" xmlns:rdf="http://www.w3.org/1999/02/22-rdf-syntax-ns#" xmlns="http://www.w3.org/2000/svg" height="16px" width="16px" version="1.1" xmlns:cc="http://creativecommons.org/ns#" xmlns:xlink="http://www.w3.org/1999/xlink" xmlns:dc="http://purl.org/dc/elements/1.1/">
 <defs id="defs2989">
  <linearGradient id="linearGradient2880" y2="44" gradientUnits="userSpaceOnUse" x2="16.143" gradientTransform="matrix(.23078 0 0 .15386 2.4612 4.8074)" y1="4" x1="16.143">
   <stop id="stop2225-6-4-7-2" style="stop-color:#fff" offset="0"/>
   <stop id="stop2229-2-5-5-8" style="stop-color:#fff;stop-opacity:0" offset="1"/>
  </linearGradient>
  <linearGradient id="linearGradient2883" y2="24.628" gradientUnits="userSpaceOnUse" x2="20.055" gradientTransform="matrix(.30476 0 0 .32156 .68572 1.0807)" y1="15.298" x1="16.626">
   <stop id="stop2687-1-9-0-2" style="stop-color:#fff" offset="0"/>
   <stop id="stop2689-5-4-3-1" style="stop-color:#fff;stop-opacity:0" offset="1"/>
  </linearGradient>
  <linearGradient id="linearGradient2886" y2="16" xlink:href="#linearGradient3680-6" gradientUnits="userSpaceOnUse" x2="16" gradientTransform="matrix(.34286 0 0 .36364 -.42808 -.81818)" y1="27.045" x1="16"/>
  <linearGradient id="linearGradient3680-6">
   <stop id="stop3682-4" style="stop-color:#dcdcdc" offset="0"/>
   <stop id="stop3684-8" style="stop-color:#fff" offset="1"/>
  </linearGradient>
  <linearGradient id="linearGradient2890" y2="26" xlink:href="#linearGradient3680-6" gradientUnits="userSpaceOnUse" x2="20" gradientTransform="matrix(.375 0 0 0.375 -.74978 -0.5)" y1="28" x1="20"/>
  <linearGradient id="linearGradient2894" y2="47.279" gradientUnits="userSpaceOnUse" x2="12.213" gradientTransform="matrix(.28855 0 0 .25608 1.0743 2.6116)" y1="2.9165" x1="12.579">
   <stop id="stop2240-1-6-7-0" style="stop-color:#fff" offset="0"/>
   <stop id="stop2242-7-3-7-2" style="stop-color:#fff;stop-opacity:0" offset="1"/>
  </linearGradient>
  <linearGradient id="linearGradient2897" y2="33.296" gradientUnits="userSpaceOnUse" x2="23.071" gradientTransform="matrix(.33032 0 0 .32624 .074248 1.9649)" y1="36.047" x1="23.071">
   <stop id="stop2225-6-4-7" style="stop-color:#fff" offset="0"/>
   <stop id="stop2229-2-5-5" style="stop-color:#fff;stop-opacity:0" offset="1"/>
  </linearGradient>
  <radialGradient id="radialGradient2900" gradientUnits="userSpaceOnUse" cy="8.4498" cx="7.4957" gradientTransform="matrix(0 .47178 -.86826 -1.9907e-8 15.337 1.0829)" r="20">
   <stop id="stop3790-0-0" style="stop-color:#505050" offset="0"/>
   <stop id="stop3792-0-2" style="stop-color:#141414" offset="1"/>
  </radialGradient>
  <linearGradient id="linearGradient2902" y2="44" gradientUnits="userSpaceOnUse" x2="16.143" gradientTransform="matrix(.28207 0 0 .20514 1.2304 3.5766)" y1="4" x1="16.143">
   <stop id="stop3796-3-0" style="stop-color:#323232" offset="0"/>
   <stop id="stop3798-8-6" offset="1"/>
  </linearGradient>
  <linearGradient id="linearGradient2983" y2="43.865" gradientUnits="userSpaceOnUse" y1="7.96" gradientTransform="matrix(.33330 0 0 .32429 .00075427 .06858)" x2="24" x1="24">
   <stop id="stop4324-9-7" style="stop-color:#f0f0f0" offset="0"/>
   <stop id="stop2860-4-4" style="stop-color:#d7d7d8" offset=".085525"/>
   <stop id="stop2862-5-9" style="stop-color:#b2b2b3" offset=".92166"/>
   <stop id="stop4326-1-1" style="stop-color:#979798" offset="1"/>
  </linearGradient>
  <linearGradient id="linearGradient2985" y2="2.8765" gradientUnits="userSpaceOnUse" y1="44.96" gradientTransform="matrix(.31912 0 0 .29298 .34112 1.4648)" x2="10.014" x1="10.014">
   <stop id="stop4334-7-6" style="stop-color:#595959" offset="0"/>
   <stop id="stop4336-8-0" style="stop-color:#b3b3b3" offset="1"/>
  </linearGradient>
 </defs>
 <metadata id="metadata2992">
  <rdf:RDF>
   <cc:Work rdf:about="">
    <dc:format>image/svg+xml</dc:format>
    <dc:type rdf:resource="http://purl.org/dc/dcmitype/StillImage"/>
    <dc:title/>
   </cc:Work>
  </rdf:RDF>
 </metadata>
 <g id="layer1">
  <rect id="rect2551-5-8" style="stroke-linejoin:round;fill-rule:evenodd;stroke:url(#linearGradient2985);stroke-linecap:round;stroke-width:1.0021;fill:url(#linearGradient2983)" rx="1" ry="1" height="11.998" width="14.998" y="2.5011" x=".50107"/>
  <rect id="rect1314-3-3" style="stroke-linejoin:round;color:#000000;stroke:url(#linearGradient2902);stroke-linecap:round;fill:url(#radialGradient2900)" rx="0" ry="0" height="8" width="11" y="4.5" x="2.5"/>
  <rect id="rect2221-3-8" style="opacity:.4;stroke-linejoin:round;stroke:url(#linearGradient2897);stroke-linecap:round;stroke-width:1.0021;fill:none" rx="0" ry="0" height="9.9979" width="12.998" y="3.5011" x="1.501"/>
  <rect id="rect2556-8-5" style="opacity:.8;stroke-linejoin:round;stroke:url(#linearGradient2894);stroke-linecap:round;stroke-width:1.0037;fill:none" height="9.9963" width="12.996" y="3.5019" x="1.5019"/>
  <path id="path3651-2" style="fill:url(#linearGradient2890)" d="m9.0002 10v-0.75h-3v0.75h3z"/>
  <path id="path3653-7" style="fill:url(#linearGradient2886)" d="m3.6862 9-0.6857-0.7273 1.5428-1.2727-1.5428-1.2727 0.6857-0.7273 2.3143 2-2.3143 2z"/>
  <path id="path3333-3-0" style="opacity:.2;fill:url(#linearGradient2883);fill-rule:evenodd" d="m1.6667 3c-0.3683 0-0.6667 0.3149-0.6667 0.7034v5.145c0.0009545 0.043283 0.018837 0.084214 0.049602 0.11286 0.030769 0.028643 0.071495 0.04238 0.1123 0.037874l13.714-2.2911c0.071-0.0117 0.123-0.0754 0.124-0.1507v-2.8539c0-0.3885-0.298-0.7034-0.667-0.7034h-12.667z"/>
  <rect id="rect1314-3-3-9" style="opacity:.1;stroke-linejoin:round;color:#000000;stroke:url(#linearGradient2880);stroke-linecap:round;fill:none" rx="0" ry="0" height="6" width="9" y="5.5" x="3.5"/>
 </g>
</svg>
